icons/folder-favicon-open.svg

<svg version="1.1" viewBox="0 0 32 32" xmlns="http://www.w3.org/2000/svg">
 <path d="m28.967 12h-19.525c-0.862 0-1.626 0.551-1.898 1.368l-3.544 10.632v-14h24c0-1.104-0.896-2-2-2h-10.876c-0.468 0-0.921-0.164-1.28-0.464l-1.288-1.072c-0.36-0.299-0.813-0.464-1.28-0.464h-7.276c-1.105 0-2 0.896-2 2v16c0 1.105 0.895 2 2 2h22l4.805-11.212c0.565-1.319-0.403-2.788-1.838-2.788z" fill="#fbc02d"/>
 <path d="m24 24 6 4-2-6 4-4h-6l-1.999-6-2.001 6h-6l4 4-2 6z" fill="#fffde7"/>
</svg>

<svg xmlns="http://www.w3.org/2000/svg" viewBox="0 0 32 32"><path fill="#fbc02d" d="M28.967 12H9.442a2 2 0 0 0-1.898 1.368L4 24V10h24a2 2 0 0 0-2-2H15.124c-.468 0-.921-.164-1.28-.464l-1.288-1.072A2.005 2.005 0 0 0 11.276 6H4a2 2 0 0 0-2 2v16a2 2 0 0 0 2 2h22l4.805-11.212A2 2 0 0 0 28.967 12z"/><path fill="#fffde7" d="m24 24 6 4-2-6 4-4h-6l-1.999-6L22 18h-6l4 4-2 6z"/></svg>
